www/assets/icons/tap_and_play.svg

<svg xmlns="http://www.w3.org/2000/svg" width="24" height="24" viewBox="0 0 24 24" fill='currentColor'><path d="M3.5 16v2c2.76 0 5 2.24 5 5h2c0-3.87-3.13-7-7-7m0 4v3h3c0-1.66-1.34-3-3-3m0-8v2a9 9 0 0 1 9 9h2c0-6.08-4.92-11-11-11m15-10.99L8.5 1c-1.1 0-2 .9-2 2v7.37c.69.16 1.36.37 2 .64V5h10v13h-3.03c.52 1.25.84 2.59.95 4h2.08c1.1 0 2-.9 2-2V3c0-1.1-.9-1.99-2-1.99"/></svg>

<svg width="24" height="24" viewBox="0 0 24 24" xmlns="http://www.w3.org/2000/svg" fill='currentColor'><path d="M3.5 16V18C6.26 18 8.5 20.24 8.5 23H10.5C10.5 19.13 7.37 16 3.5 16ZM3.5 20V23H6.5C6.5 21.34 5.16 20 3.5 20ZM3.5 12V14C8.47 14 12.5 18.03 12.5 23H14.5C14.5 16.92 9.58 12 3.5 12ZM18.5 1.01L8.5 1C7.4 1 6.5 1.9 6.5 3V10.37C7.19 10.53 7.86 10.74 8.5 11.01V5H18.5V18H15.47C15.99 19.25 16.31 20.59 16.42 22H18.5C19.6 22 20.5 21.1 20.5 20V3C20.5 1.9 19.6 1.01 18.5 1.01Z"/></svg>
